X: 43
T: No_38_Woman's_Dance_Song_(c).krn
N: Derived from No_38_Woman's_Dance_Song_(c).krn
%%abc-version 2.0
%%abcx-abcm2ps-target-version 5.9.1 (29 Sep 2008)
%%abc-creator hum2abc beta
%%abcx-conversion-date 2019/03/15 08:36:49
%%humdrum-veritas 12592790
%%humdrum-veritas-data 2995312831
%%linebreak <none>
%%barnumbers 0
L: 1/8
M: 3/4
%%staves {1 2}
V: 1 clef=bass
V: 2 clef=bass
K: B
[V:1] D3/B,/ [I:setbarnb 1]| 
[V:2] z2 | 
[V:1] D4B,3/G,/ | 
[V:2] (3!accent!G,, z G,, (3!accent!G,, z G,, (3!accent!G,, z G,, | 
[V:1] B,4G,3/D,/ | 
[V:2] z6 | 
[V:1] G,4F,3/D,/ | 
[V:2] z6 | 
[V:1] D,4G,3/D,/ | 
[V:2] z6 | 
[V:1] G,4F,3/D,/ | 
[V:2] z6 | 
[V:1] D,4D,3/B,,/ ||  
[V:2] z6 ||  
[V:1] [M:2/4]D,4 ||  
[V:2] [M:2/4]z4 ||  
[V:1] [M:3/4](3D,D,B,, (3D,D,B,, (3D,D,B,, ||  
[V:2] [M:3/4]z6 ||  
[V:1] [M:2/4]D,4 :|]  
[V:2] [M:2/4]z4 :|]  



